src/lib/packages/icons/src/assets/filled/angle-up-circle.svg

<svg width="24" height="24" viewBox="0 0 24 24" fill="none" xmlns="http://www.w3.org/2000/svg">
<path d="M12 2C6.477 2 2 6.477 2 12C2 17.523 6.477 22 12 22C17.523 22 22 17.523 22 12C22 6.477 17.523 2 12 2ZM15.53 13.53C15.384 13.676 15.192 13.75 15 13.75C14.808 13.75 14.616 13.677 14.47 13.53L12 11.0601L9.53003 13.53C9.23703 13.823 8.76199 13.823 8.46899 13.53C8.17599 13.237 8.17599 12.762 8.46899 12.469L11.469 9.46899C11.762 9.17599 12.237 9.17599 12.53 9.46899L15.53 12.469C15.823 12.763 15.823 13.237 15.53 13.53Z" fill="currentColor"/>
</svg>

<svg xmlns="http://www.w3.org/2000/svg" width="24" height="24" fill="none"><path fill="currentColor" d="M12 2C6.477 2 2 6.477 2 12s4.477 10 10 10 10-4.477 10-10S17.523 2 12 2Zm3.53 11.53a.748.748 0 0 1-1.06 0L12 11.06l-2.47 2.47a.75.75 0 0 1-1.061-1.061l3-3a.75.75 0 0 1 1.061 0l3 3a.75.75 0 0 1 0 1.061Z"/></svg>
